X:176
T: ES WAREN DREI GESELLEN
N: Z0175
O: Europa, Mitteleuropa, Deutschland, Pommern
R: Romanze, Tod
M: 4/4
L: 1/16
K: Bb
F4 | B4A2G2F4B4 | d2c2B4z4
F4 | B4A2G2F4B4 | d2c2B4z4
f3e | d2d2d2d2d4f4 | f2e2e2d2c6
c2 | c2c2c2c2f4f2e2 | d2d2c2c2B4

